!!!COM: Mozart
!!!OTL: Zehn Variationen in G, uber die Ariette 'Unser dummer Pobel meint' aus dem Singspiel 'Die Pilgrime von Mekka'
!!!Variation: Variation 9 c
**function	**harm	**kern	**kern
*	*	*clefF4	*clefG2
*	*	*k[f#]	*k[f#]
*M2/2	*M2/2	*M2/2	*M2/2
*G:	*G:	*G:	*G:
=187	=187	=187	=187
1T	1I	2GG 2G	[8gL
.	.	.	24gL]
.	.	.	24a'
.	.	.	24b'JJ
.	.	.	24cc'LL
.	.	.	24dd'
.	.	.	24ee'J
.	.	.	24ff#'L
.	.	.	24gg'
.	.	.	24aa'JJ
.	.	4r	8bb
.	.	.	16.r
.	.	.	32g
.	.	4GG 4G	(8.gL
.	.	.	32f#LL
.	.	.	32gJJJ)
=188	=188	=188	=188
1T	1Vb	2FF# 2F#	24f#'LL
.	.	.	24g'
.	.	.	24a'J
.	.	.	24bL
.	.	.	24cc#'
.	.	.	24dd'JJ
.	.	.	24ee'LL
.	.	.	24ff#'
.	.	.	24gg'J
.	.	.	24aa'L
.	.	.	24bb'
.	.	.	24ccc#'JJ
.	.	4r	8ddd
.	.	.	16.r
.	.	.	32f#
.	.	4FF# 4F#	(8.f#L
.	.	.	32eLL
.	.	.	32f#JJJ)
=189	=189	=189	=189
2P	2V7c/V	4EE 4E	(16eLL
.	.	.	16cc#
.	.	.	16g
.	.	.	16eeJJ
.	.	4r	16cc#LL
.	.	.	16gg
.	.	.	16ee
.	.	.	16ccc#JJ)
2P	2V7/V	2A 2e 2g	(16ggLL
.	.	.	16eee
.	.	.	16ddd
.	.	.	16ccc#JJ
.	.	.	16bbLL
.	.	.	16aa
.	.	.	16gg#
.	.	.	16aaJJ)
=190	=190	=190	=190
*	*	*clefG2	*
*	*	*^	*
2D	2Cc	[2d	4g	(4.aa
.	.	.	8f#L	.
.	.	.	8eJ	8ddd)
2D	2V	8d]	8f#	8ddL
*	*	*v	*v	*
.	.	8r	8dd
.	.	(4D 4F#	8dd
.	.	.	[8dJ [8dd
=191	=191	=191	=191
4D	4viiob/V	4E 4G	8d] 8dd]
.	.	.	4c# 4cc#
4D	4Gn	4G 4B-	.
.	.	.	4e- 4ee-
4D	4Vb	4F# 4A	.
.	.	.	4d 4dd
4D	4viioD7/vi	4D#) 4F#	.
.	.	.	8c [8cc
=192	=192	=192	=192
*	*	*^	*
2D	2vi	4E	2.G	(12ccL]
.	.	.	.	12b
.	.	.	.	12ggJ)
.	.	4BBn	.	(12ff#'L
.	.	.	.	12ff'
.	.	.	.	12ee'J)
2P	2IV	2C	.	(8dd#
.	.	.	.	4ee)
.	.	.	4E	.
.	.	.	.	(32ddLLL
.	.	.	.	32cc
.	.	.	.	32b
.	.	.	.	32aJJJ)
*	*	*v	*v	*
=193	=193	=193	=193
2D	2Cc	[2D (2B	16ddLL
.	.	.	16cc#
.	.	.	16cc
.	.	.	16bJJ
.	.	.	16ddLL
.	.	.	16cc#
.	.	.	16cc
.	.	.	16bJJ
2D	2V7	8D] 8A)	8ddL
.	.	8r	8ccJ
.	.	8D 8c	8..r
.	.	8r	.
.	.	.	32f#
=194	=194	=194	=194
1T	1I	(4G	(2c 2d 2f# 2a
.	.	4D)	.
.	.	8GG	8B) 8d 8g
.	.	8r	8r
.	.	4r	4r
*-	*-	*-	*-
